X:530
T: ZUFRIEDENHEIT IST MEIN VERGNUEGEN
N: E1804A
O: Europa, Mitteleuropa, Deutschland, Westfalen; Rheinland; Nassau
R: Moral - Lied
M: 3/4
L: 1/16
K: Bb
F2 | D2F2D2F2BAG2 | G4F4z2
B2 | A2B2c2d2e2d2 | d4c4z2
d2 | c3dc2B2A2G2 | F3GF2E2D2F2 | B4z4
B2c2 | d2d2d2f2edc2 | B4z6

